X:1
T:Polska efter J.C. Blomgren 
T:(SvL Skne 469)
R:Polska
Z:Patrik Mnsson, 3/10 2008
O:Hsslunda, Skne
S:efter Johan Christian Blomgren
B:Svenska Ltar
N:Sv. L. Sk. 469, samt Omtyckta Sknska Allspelsltar
M:3/4
L:1/16
K:D
|: d2cB A4 G4 | F2FG A2AB c2BA | d2cB A2E2 F2G2 | (AF)GE E4 D4 :|
|: d2ef d2ef (gf)ed | c2de c2de (fe)dc | d2ef d2ef (gf)ed | (cd)ef g2bg e4 |
d2ef d2ef (gf)ed | c2de c2de (fe)dc | d2ef (gb)ge (fa)fd | (Ad)fe e4 d4 :|
